X:1
T:F Major French Psalter, 1561
T:Thomas Sternhold, 1547 (Psalm 25)                 66. 86. (S. M.) 
T:Psalm 25 Transcribed from The Scottish Psalter, 1635.
%%score [ 1 2 3 4 ]
L:1/8
M:none
K:F
V:1 treble nm="Treble" snm="Tr."
V:2 treble nm="Counter" snm="C."
V:3 treble-8 nm="Tenor" snm="T."
V:4 bass nm="Bass" snm="B."
V:1
"^1.  I    lift   my heart to thee,    My God and guide most just,   Now suffer me to take no shame,     For   in  thee  do  I    trust.""^2.  Direct  me  in  thy truth,    And  teach  me,  I  thee  pray:   Thou art my Savior and my God,      On  thee  I  wait  al–way." F4 c4 c4 c2 B2 G4 | %1
 F2 F4 A2 G2 (F4 E2) F4 | F4 E2 D2 A4 F2 F4 E2 F4 | F4 E2 A2 G4 F4 E4 | %4
"^1.  Let   not  my  foes  rejoice,     Nor make  a      scorn   of   me;     And let  them not  be overthrown,    That put their trust in thee.""^2.  Thy mercies ma–ni–fold      Re–mem–ber,   Lord,    I   pray:    In     pi – ty  thou art  plen–ti–ful,     And  so  hast  been  al–way." F4 F2 G2 A4 G4 ^F4 | %5
 c2 B4 G4 F4 E2 F4 | A4 d2 c2 B2 A2 G2 F2 E4 | F2 G4 A4 F4 E2 F8- F8 |] %8
V:2
"^3. The humble he will teach   His  pre–cepts  to o  –  bey,       He  will direct   in  all    his paths    The  lowly  man al – way.""^4.  With mercy  me be – hold,  To  thee  I  make  my moan:     For   I   am  poor  and  de–so–late,   And  com–fort–less alone." c4 f4 e4 f2 d2 e4 | %1
 c2 d4 f2 d4 c4 A4 | c4 c2 A2 A4 d2 c4 c2 c4 | F4 c2 A2 d4 c4 c4 | %4
"^4.  The troubles of my  heart     Are   mul–ti–plied    in – deed;  Bring me out  of  this   mi – se – ry.     Ne–ces–si–ty, and  need.""^3. For  all  the  ways  of   God     Both truth and mer –cy      are,   To  them  that  do  his  co–ve–nant    And statutes keep with care." c4 d2 d2 f4 d4 d4 | %5
 c2 d4 c2 (A3 B) c4 c4 | c4 f2 f2 d2 f2 d2 c2 c4 | f2 e4 f2 d4 c4 A8- A8 |] %8
V:3
"^5.   O Lord, behold my foes,    How  they  do  still  increase,  Pursuing me with deadly hate,  That fain would live in peace:""^6. Let truth and uprightness   For  ever  wait    on         me,    Because my hope and confidence    Have always been in thee." A4 A4 G4 A2 B2 c4 | %1
 A2 A4 F2 B4 G4 F4 | A4 G2 F2 c4 B2 A4 G2 A4 | D4 G2 F2 B4 A4 A4 | %4
"^5.  Preserve and keep my soul,  And   still   de – li – ver      me;    And  let  me  not  be  overthrown,       Because  I  trust  in  thee.""^6.  De–li–ver,  Lord,  thy  folk,       And  send  them  some  relief;   I  mean  thy  cho–sen Is–ra – el,   From all their pain and grief." A4 A2 B2 c4 B4 A4 | %5
 F2 f4 E2 F4 G4 A4 | F4 A2 A2 d2 c2 B2 A2 G4 | F2 c4 A2 B4 G4 F8- F8 |] %8
V:4
 F,4 F,4 C,4 F,2 G,2 E,4 | F,2 D,4 D,2 B,,4 C,4 F,,4 | F,4 C,2 D,2 A,,4 B,,2 F,4 C,2 F,,4 | %3
 D,4 C,2 D,2 B,,4 F,4 C,4 | F,4 E,2 G,2 F,4 G,4 D,4 | F,2 B,,4 C,2 D,4 C,4 F,,4 | %6
"^Edited by B. C. Johnston, 2016\n   1. All notes half value of original.  \n   2. \nCounter\n as written.   \n   3. Measure 6, Tenor: second note changed from E to F." F,4 D,2 F,2 B,,2 F,,2 G,,2 A,,F,, C,4 | %7
 D,2 C,4 F,2 B,,4 C,4 F,,8- F,,8 |] %8

